findly-builder/apps/searchassist/src/assets/icons/analytics/searches.svg

<svg width="14" height="13" viewBox="0 0 14 13" fill="none" xmlns="http://www.w3.org/2000/svg">
<path d="M2.1875 0.75C1.46779 0.75 0.875 1.34279 0.875 2.0625V9.0625C0.875 9.78221 1.46779 10.375 2.1875 10.375H7V9.5H2.1875C1.94121 9.5 1.75 9.30879 1.75 9.0625V3.375H12.25V5.125H13.125V2.0625C13.125 1.34279 12.5322 0.75 11.8125 0.75H2.1875ZM2.1875 1.625H11.8125C12.0588 1.625 12.25 1.81621 12.25 2.0625V2.5H1.75V2.0625C1.75 1.81621 1.94121 1.625 2.1875 1.625ZM3.5 5.125V6H4.375V5.125H3.5ZM5.25 5.125V6H9.625V5.125H5.25ZM11.375 6C9.93043 6 8.75 7.18043 8.75 8.625C8.75 9.19019 8.93396 9.71143 9.24048 10.1409L7.0188 12.3625L7.63745 12.9812L9.85913 10.7595C10.2886 11.066 10.8098 11.25 11.375 11.25C12.8196 11.25 14 10.0696 14 8.625C14 7.18043 12.8196 6 11.375 6ZM3.5 6.875V7.75H4.375V6.875H3.5ZM5.25 6.875V7.75H7.875V6.875H5.25ZM11.375 6.875C12.3467 6.875 13.125 7.65332 13.125 8.625C13.125 9.59668 12.3467 10.375 11.375 10.375C10.4033 10.375 9.625 9.59668 9.625 8.625C9.625 7.65332 10.4033 6.875 11.375 6.875Z" fill="#3C4043"/>
</svg>

<svg width="14" height="13" fill="none" xmlns="http://www.w3.org/2000/svg"><path d="M2.188.75A1.32 1.32 0 0 0 .875 2.063v7c0 .72.593 1.312 1.313 1.312H7V9.5H2.187a.432.432 0 0 1-.437-.438V3.375h10.5v1.75h.875V2.062A1.32 1.32 0 0 0 11.812.75H2.188Zm0 .875h9.624c.247 0 .438.191.438.438V2.5H1.75v-.438c0-.246.191-.437.438-.437Zm1.312 3.5V6h.875v-.875H3.5Zm1.75 0V6h4.375v-.875H5.25ZM11.375 6A2.632 2.632 0 0 0 8.75 8.625a2.6 2.6 0 0 0 .49 1.516l-2.22 2.222.618.618L9.86 10.76c.43.307.95.491 1.516.491A2.632 2.632 0 0 0 14 8.625 2.632 2.632 0 0 0 11.375 6ZM3.5 6.875v.875h.875v-.875H3.5Zm1.75 0v.875h2.625v-.875H5.25Zm6.125 0c.972 0 1.75.778 1.75 1.75s-.778 1.75-1.75 1.75-1.75-.778-1.75-1.75.778-1.75 1.75-1.75Z" fill="#3C4043"/></svg>
